html/images/delivery_button.svg

<svg width="46" height="40" viewBox="0 0 46 40" fill="none" xmlns="http://www.w3.org/2000/svg">
  <path
    d="M30.2873 27.2429H14.8103C14.6031 28.5509 13.936 29.742 12.929 30.6021C11.922 31.4621 10.6411 31.9346 9.31682 31.9346C7.99252 31.9346 6.71166 31.4621 5.70464 30.6021C4.69762 29.742 4.03052 28.5509 3.82332 27.2429H1.88631C1.39149 27.2397 0.918139 27.0404 0.570025 26.6887C0.221911 26.337 0.0274507 25.8618 0.0293142 25.3669V1.87695C0.0271852 1.38195 0.221516 0.906335 0.569658 0.554443C0.917801 0.202551 1.39131 0.00317363 1.88631 0H27.4373C27.9322 0.00317353 28.4056 0.202522 28.7536 0.554443C29.1016 0.906364 29.2957 1.38204 29.2933 1.87695V3.78198H36.4143C36.4947 3.78164 36.5747 3.79208 36.6523 3.81299C38.9523 4.01299 40.1093 5.2129 41.3293 7.2749L44.8883 13.3689C44.9732 13.5136 45.018 13.6782 45.0183 13.8459V26.304C45.0194 26.5515 44.9221 26.7892 44.7479 26.9651C44.5738 27.141 44.3369 27.2406 44.0893 27.2419H41.2753C41.0681 28.5499 40.401 29.741 39.394 30.6011C38.387 31.4611 37.1061 31.9336 35.7818 31.9336C34.4575 31.9336 33.1767 31.4611 32.1696 30.6011C31.1626 29.741 30.4955 28.5499 30.2883 27.2419L30.2873 27.2429ZM32.0653 26.304C32.0732 27.0369 32.2977 27.7511 32.7107 28.3567C33.1236 28.9623 33.7065 29.4322 34.3859 29.7073C35.0653 29.9824 35.811 30.0503 36.5289 29.9026C37.2469 29.7548 37.9051 29.398 38.4207 28.877C38.9363 28.3559 39.2862 27.6941 39.4265 26.9746C39.5667 26.2551 39.491 25.5103 39.2088 24.8337C38.9267 24.1572 38.4507 23.5794 37.8408 23.1729C37.2309 22.7663 36.5143 22.5491 35.7813 22.5488C34.791 22.5552 33.8436 22.9543 33.1469 23.6582C32.4503 24.3621 32.0613 25.3136 32.0653 26.304ZM5.60134 26.304C5.60923 27.0369 5.83376 27.7511 6.24669 28.3567C6.65962 28.9623 7.2425 29.4322 7.92192 29.7073C8.60135 29.9824 9.34697 30.0503 10.0649 29.9026C10.7829 29.7548 11.4411 29.398 11.9567 28.877C12.4723 28.3559 12.8222 27.6941 12.9625 26.9746C13.1027 26.2551 13.027 25.5103 12.7448 24.8337C12.4627 24.1572 11.9867 23.5794 11.3768 23.1729C10.7669 22.7663 10.0503 22.5491 9.31731 22.5488C8.32679 22.5549 7.37915 22.9537 6.6823 23.6577C5.98545 24.3617 5.59634 25.3134 5.60033 26.304H5.60134ZM41.2733 25.366H43.1593V19.7478H40.4233C40.3007 19.7473 40.1794 19.7227 40.0664 19.6753C39.9533 19.6279 39.8507 19.5586 39.7644 19.4714C39.6781 19.3843 39.6099 19.281 39.5635 19.1675C39.5172 19.054 39.4937 18.9324 39.4943 18.8098V16.9629C39.494 16.2423 39.7696 15.5488 40.2643 15.0249H33.8853C33.8081 15.0248 33.7312 15.015 33.6563 14.9958C32.9516 14.933 32.2961 14.6081 31.8194 14.0852C31.3428 13.5623 31.0798 12.8794 31.0823 12.1719V7.47192C31.0817 7.34927 31.1052 7.22758 31.1515 7.11401C31.1978 7.00044 31.2661 6.89725 31.3523 6.81006C31.4386 6.72286 31.5412 6.6535 31.6543 6.60596C31.7674 6.55841 31.8887 6.53361 32.0113 6.53296H38.4943C38.15 6.21428 37.7426 5.97123 37.2986 5.81982C36.8545 5.66842 36.3836 5.61187 35.9163 5.65381H29.2933V25.3618H30.2873C30.4945 24.0538 31.1616 22.8627 32.1687 22.0027C33.1757 21.1426 34.4565 20.6702 35.7808 20.6702C37.1051 20.6702 38.386 21.1426 39.393 22.0027C40.4 22.8627 41.0671 24.0538 41.2743 25.3618L41.2733 25.366ZM14.8093 25.366H27.4363V1.87598H1.88631V25.366H3.82332C4.03052 24.058 4.69762 22.8666 5.70464 22.0066C6.71166 21.1465 7.99252 20.6741 9.31682 20.6741C10.6411 20.6741 11.922 21.1465 12.929 22.0066C13.936 22.8666 14.6031 24.058 14.8103 25.366H14.8093ZM41.3513 16.9658V17.875H43.1593V16.0278H42.2803C42.0335 16.0294 41.7973 16.1288 41.6234 16.304C41.4495 16.4792 41.352 16.716 41.3523 16.9629L41.3513 16.9658ZM32.9383 12.1738C32.9372 12.4263 33.0363 12.6691 33.2139 12.8486C33.3914 13.0282 33.6328 13.13 33.8853 13.1318C33.9492 13.1317 34.0129 13.1384 34.0753 13.1519H42.6003L39.8343 8.41602H32.9343L32.9383 12.1738ZM33.0313 26.3059C33.0284 25.5734 33.3162 24.8695 33.8316 24.3489C34.3469 23.8283 35.0478 23.5333 35.7803 23.5288C36.0291 23.5288 36.2677 23.6278 36.4436 23.8037C36.6195 23.9796 36.7183 24.218 36.7183 24.4668C36.7183 24.7156 36.6195 24.9542 36.4436 25.1301C36.2677 25.306 36.0291 25.4048 35.7803 25.4048C35.602 25.4032 35.4272 25.4548 35.2782 25.5527C35.1291 25.6507 35.0125 25.7905 34.9432 25.9548C34.8738 26.1191 34.8548 26.3005 34.8887 26.4756C34.9225 26.6507 35.0076 26.8118 35.1331 26.9385C35.2586 27.0651 35.419 27.1516 35.5938 27.187C35.7686 27.2224 35.9499 27.2051 36.1149 27.1372C36.2798 27.0693 36.4208 26.9538 36.5201 26.8057C36.6193 26.6575 36.6723 26.4833 36.6723 26.3049C36.6723 26.0587 36.7701 25.8226 36.9443 25.6484C37.1184 25.4743 37.3546 25.3765 37.6008 25.3765C37.8471 25.3765 38.0832 25.4743 38.2574 25.6484C38.4315 25.8226 38.5293 26.0587 38.5293 26.3049C38.5293 27.0343 38.2396 27.7338 37.7239 28.2495C37.2081 28.7652 36.5087 29.0549 35.7793 29.0549C35.05 29.0549 34.3505 28.7652 33.8348 28.2495C33.319 27.7338 33.0293 27.0343 33.0293 26.3049L33.0313 26.3059ZM6.56731 26.3059C6.56438 25.5734 6.8522 24.8695 7.36757 24.3489C7.88294 23.8283 8.58378 23.5333 9.31633 23.5288C9.5651 23.5288 9.80369 23.6278 9.9796 23.8037C10.1555 23.9796 10.2543 24.218 10.2543 24.4668C10.2543 24.7156 10.1555 24.9542 9.9796 25.1301C9.80369 25.306 9.5651 25.4048 9.31633 25.4048C9.138 25.4032 8.96319 25.4548 8.81413 25.5527C8.66508 25.6507 8.54849 25.7905 8.47914 25.9548C8.4098 26.1191 8.39082 26.3005 8.42464 26.4756C8.45846 26.6507 8.54354 26.8118 8.66908 26.9385C8.79463 27.0651 8.95498 27.1516 9.12978 27.187C9.30458 27.2224 9.48595 27.2051 9.65087 27.1372C9.81579 27.0693 9.95683 26.9538 10.0561 26.8057C10.1553 26.6575 10.2083 26.4833 10.2083 26.3049C10.2083 26.0587 10.3061 25.8226 10.4803 25.6484C10.6544 25.4743 10.8906 25.3765 11.1368 25.3765C11.3831 25.3765 11.6193 25.4743 11.7934 25.6484C11.9675 25.8226 12.0653 26.0587 12.0653 26.3049C12.0653 27.0343 11.7756 27.7338 11.2599 28.2495C10.7441 28.7652 10.0447 29.0549 9.31532 29.0549C8.58598 29.0549 7.8865 28.7652 7.37078 28.2495C6.85505 27.7338 6.56532 27.0343 6.56532 26.3049L6.56731 26.3059ZM4.70934 5.65991C4.46056 5.65991 4.22198 5.56116 4.04607 5.38525C3.87016 5.20934 3.77132 4.9707 3.77132 4.72192C3.77132 4.47315 3.87016 4.2345 4.04607 4.05859C4.22198 3.88268 4.46056 3.78394 4.70934 3.78394H24.6093C24.8581 3.78394 25.0967 3.88268 25.2726 4.05859C25.4485 4.2345 25.5473 4.47315 25.5473 4.72192C25.5473 4.9707 25.4485 5.20934 25.2726 5.38525C25.0967 5.56116 24.8581 5.65991 24.6093 5.65991H4.70934Z"
    fill="#F16D7F" />
</svg>

<svg xmlns="http://www.w3.org/2000/svg" width="46" height="40" fill="none" xmlns:v="https://vecta.io/nano"><path d="M30.287 27.243H14.81a5.56 5.56 0 0 1-5.493 4.692 5.56 5.56 0 0 1-5.493-4.692H1.886a1.87 1.87 0 0 1-1.857-1.876V1.877A1.87 1.87 0 0 1 1.886 0h25.551a1.87 1.87 0 0 1 1.856 1.877v1.905h7.121a.9.9 0 0 1 .238.031c2.3.2 3.457 1.4 4.677 3.462l3.559 6.094c.085.145.13.309.13.477v12.458c.001.248-.096.485-.27.661s-.411.276-.659.277h-2.814a5.56 5.56 0 0 1-5.494 4.692 5.56 5.56 0 0 1-5.493-4.692l-.001.001zm1.778-.939c.008.733.232 1.447.645 2.053s.996 1.076 1.675 1.351 1.425.343 2.143.195 1.376-.505 1.892-1.026.866-1.183 1.006-1.902.065-1.464-.218-2.141-.758-1.254-1.368-1.661-1.327-.624-2.059-.624a3.74 3.74 0 0 0-3.716 3.755zm-26.464 0c.008.733.232 1.447.645 2.053s.996 1.076 1.675 1.351 1.425.343 2.143.195 1.376-.505 1.892-1.026.866-1.183 1.006-1.902.064-1.464-.218-2.141-.758-1.254-1.368-1.661-1.326-.624-2.059-.624A3.74 3.74 0 0 0 5.6 26.304h.001zm35.672-.938h1.886v-5.618h-2.736c-.123-.001-.244-.025-.357-.073a.93.93 0 0 1-.302-.204c-.086-.087-.154-.19-.201-.304s-.07-.235-.069-.358v-1.847a2.82 2.82 0 0 1 .77-1.938h-6.379c-.077 0-.154-.01-.229-.029-.705-.063-1.36-.388-1.837-.911s-.74-1.206-.737-1.913v-4.7c-.001-.123.023-.244.069-.358s.115-.217.201-.304.189-.157.302-.204.234-.072.357-.073h6.483c-.344-.319-.752-.562-1.196-.713s-.915-.208-1.382-.166h-6.623v19.708h.994a5.56 5.56 0 0 1 5.494-4.692 5.56 5.56 0 0 1 5.493 4.692l-.001.004zm-26.464 0h12.627V1.876H1.886v23.49h1.937a5.56 5.56 0 0 1 5.494-4.692 5.56 5.56 0 0 1 5.493 4.692h-.001zm26.542-8.4v.909h1.808v-1.847h-.879c-.247.002-.483.101-.657.276s-.271.412-.271.659l-.001.003zm-8.413-4.792c-.001.252.098.495.276.675s.419.281.671.283a.89.89 0 0 1 .19.02H42.6l-2.766-4.736h-6.9l.004 3.758zm.093 14.132c-.003-.733.285-1.436.8-1.957s1.216-.816 1.949-.82a.94.94 0 0 1 .938.938.94.94 0 0 1-.938.938.9.9 0 0 0-.837.55.9.9 0 0 0 .19.984.9.9 0 0 0 .982.199.9.9 0 0 0 .557-.832.93.93 0 0 1 .928-.928.93.93 0 0 1 .928.928 2.75 2.75 0 0 1-2.75 2.75 2.75 2.75 0 0 1-2.75-2.75l.002.001zm-26.464 0c-.003-.733.285-1.436.8-1.957s1.216-.816 1.949-.82a.94.94 0 0 1 .938.938.94.94 0 0 1-.938.938.9.9 0 0 0-.837.55.9.9 0 0 0 .19.984.9.9 0 0 0 .982.199.9.9 0 0 0 .557-.832.93.93 0 0 1 .928-.928.93.93 0 0 1 .929.928 2.75 2.75 0 0 1-2.75 2.75 2.75 2.75 0 0 1-2.75-2.75l.002.001zM4.709 5.66a.94.94 0 0 1-.938-.938.94.94 0 0 1 .938-.938h19.9a.94.94 0 0 1 .938.938.94.94 0 0 1-.938.938h-19.9z" fill="#f16d7f"/></svg>
